X:71
T: DER SCHAEFER UEBER DIE BRUECKE KAM
N: E0043B
O: Europa, Mitteleuropa, Deutschland, Hessen, Darmstadt, Alsfeld
R: erzaehlendes Volks - Lied, Ritter - Sage
M: 4/4
L: 1/8
K: G
D2 | G2G2B2B2 | d2d2B2
d2 | edcBc2c2 | dcBAB2
GA | B2B2d2c2 | B2A2G2
B2 | AGBAG2B2 | d2D2G2
GA | B2B2d2c2 | B2A2G2

